icons/svg/file-graph_44.svg

<svg width="44" height="44" viewBox="0 0 44 44" xmlns="http://www.w3.org/2000/svg"><title>sources-and-media/file-graph_44</title><path d="M38 40c0 1.654-1.346 3-3 3L9 43c-1.654 0-3-1.346-3-3L6 4c0-1.654 1.346-3 3-3l16.809 0c.202 0 .4.082.543.225l11.423 11.381c.143.143.225.341.225.542L38 40zm.481-28.102c.33.33.519.786.519 1.25L39 40c0 2.206-1.794 4-4 4L9 44c-2.206 0-4-1.794-4-4L5 4c0-2.206 1.794-4 4-4l16.809 0c.472 0 .916.184 1.249.517l11.423 11.381zM23 26l0-8.987c4.841.253 8.734 4.146 8.987 8.987L23 26zm-1 10c-4.962 0-9-4.038-9-9 0-4.963 4.038-9 9-9l0 8.5c0 .276.224.5.5.5l8.5 0c0 4.962-4.037 9-9 9zm.5-20c-.276 0-.5.224-.5.5l0 .5c-5.523 0-10 4.477-10 10 0 5.523 4.477 10 10 10 5.523 0 10-4.477 10-10l.5 0c.276 0 .5-.224.5-.5C33 20.71 28.29 16 22.5 16z" fill-rule="evenodd"/></svg>

<?xml version="1.0" encoding="UTF-8"?>
<svg width="44px" height="44px" viewBox="0 0 44 44" version="1.1" xmlns="http://www.w3.org/2000/svg" xmlns:xlink="http://www.w3.org/1999/xlink">
    <!-- Generator: Sketch 60.1 (88133) - https://sketch.com -->
    <title>sources-and-media/file-graph_44</title>
    <desc>Created with Sketch.</desc>
    <g id="sources-and-media/file-graph_44" stroke="none" stroke-width="1" fill="none" fill-rule="evenodd">
        <path d="M38.481,11.898 L27.058,0.517 C26.725,0.184 26.281,0 25.809,0 L9,0 C6.794,0 5,1.794 5,4 L5,40 C5,42.206 6.794,44 9,44 L35,44 C37.206,44 39,42.206 39,40 L39,13.148 C39,12.684 38.811,12.228 38.481,11.898 L38.481,11.898 Z M38,40 C38,41.654 36.654,43 35,43 L9,43 C7.346,43 6,41.654 6,40 L6,4 C6,2.346 7.346,1 9,1 L25.809,1 C26.011,1 26.209,1.082 26.352,1.225 L37.775,12.606 C37.918,12.749 38,12.947 38,13.148 L38,40 Z M22.5,16 C22.224,16 22,16.224 22,16.5 L22,17 C16.477,17 12,21.477 12,27 C12,32.523 16.477,37 22,37 C27.523,37 32,32.523 32,27 L32.5,27 C32.776,27 33,26.776 33,26.5 C33,20.71 28.29,16 22.5,16 L22.5,16 Z M23,26 L23,17.013 C27.841,17.266 31.734,21.159 31.987,26 L23,26 Z M22,36 C17.038,36 13,31.962 13,27 C13,22.037 17.038,18 22,18 L22,26.5 C22,26.776 22.224,27 22.5,27 L31,27 C31,31.962 26.963,36 22,36 L22,36 Z" id="fill" fill="#171B1F"></path>
    </g>
</svg>
